X: 1
T: Greasy Coat
R: reel
Z: 2012 John Chambers <jc:trillian.mit.edu>
S: from Debby Knight, plus several youtube videos
M: C|
L: 1/8
K: Ador
AB |\
"Am"c2AA "G"GGAA | "Em"cAG2 "Am"A2AB | "Am"c2A2 "G"GGAG | "Em"EDEG "Am"A2AB |\
"Am"cAGA cAdA | "Am"e4- "Em"e2d2 | "Am"c2A2 "G"G2AG | "Em"EDEG "Am"A2 :|
|: AG |\
"Am"ABcd eefe | "G"fg2g gAcB | "Am"ABcd efge | "D"ga2a a2cB |\
"Am"ABcd e2fe | "G"g2ag eAdA | "Am"c2AA "G"G2AG | "Em"EDEG "Am"A2 :|
